web/src/assets/images/diagram/imm.svg

<svg
    xmlns="http://www.w3.org/2000/svg" viewBox="0 0 756 890" width="756" height="890" style="transparent">
    <defs>
        <style>@import url('https://fonts.googleapis.com/css?family=Nunito Sans&amp;display=swap');</style>
    </defs>
    <defs>
        <filter id="shadow" height="130%">
            <feGaussianBlur in="SourceAlpha" stdDeviation="3"/>
            <feOffset dx="2" dy="2" result="offsetblur"/>
            <feComponentTransfer>
                <feFuncA type="linear" slope="0.5"/>
            </feComponentTransfer>
            <feMerge>
                <feMergeNode/>
                <feMergeNode in="SourceGraphic"/>
            </feMerge>
        </filter>
    </defs>
    <g transform="translate(0,300), scale(2.0,2.0)" fill="transparent" style="will-change: transform;transition: transform 0.15s ease">
        <g>
            <g>
                <path stroke-width="2" stroke="#3E9BCD" d="M140,32.5 L182,32.5 A8,8,0,0,0,190,24.5 L190,-89.5 A8,8,0,0,1,198,-97.5 L240,-97.5" fill="transparent"/>
                <g/>
                <g>
                    <foreignObject x="240" y="-130" width="140" height="65" fill="#FFFFFF" color="#111111" font-size="14" class=".select-none">
                        <div
                            xmlns="http://www.w3.org/1999/xhtml" style="width: 140px; height: 65px; font-family: &quot;Nunito Sans&quot;, sans-serif; overflow-wrap: break-word; display: flex; align-items: center; justify-content: center;">
                            <div style="border-radius:8px;width: 80px; height:20px;font-size: 14px; background-color:#DDD"></div>
                        </div>
                    </foreignObject>
                    <foreignObject x="240" y="-130" width="140" height="65">
                        <div
                            xmlns="http://www.w3.org/1999/xhtml" style="background-color: transparent; width: 140px; height: 65px;">
                        </div>
                    </foreignObject>
                </g>
                <path stroke-width="2" stroke="#3E9BCD" d="M140,32.5 L182,32.5 A8,8,0,0,0,190,24.5 L190,-14.5 A8,8,0,0,1,198,-22.5 L240,-22.5" fill="transparent"/>
                <g/>
                <g>
                    <foreignObject x="240" y="-55" width="140" height="65" fill="#FFFFFF" color="#111111" font-size="14" class=".select-none">
                        <div
                            xmlns="http://www.w3.org/1999/xhtml" style="width: 140px; height: 65px; font-family: &quot;Nunito Sans&quot;, sans-serif; overflow-wrap: break-word; display: flex; align-items: center; justify-content: center;">
                            <div style="border-radius:8px;width: 80px; height:20px;font-size: 14px; background-color:#DDD"></div>
                        </div>
                    </foreignObject>
                    <foreignObject x="240" y="-55" width="140" height="65">
                        <div
                            xmlns="http://www.w3.org/1999/xhtml" style="background-color: transparent; width: 140px; height: 65px;">
                        </div>
                    </foreignObject>
                </g>
                <path stroke-width="2" stroke="#3E9BCD" d="M140,32.5 L182,32.5 A8,8,0,0,1,190,40.5 L190,44.5 A8,8,0,0,0,198,52.5 L240,52.5" fill="transparent"/>
                <g/>
                <g>
                    <foreignObject x="240" y="20" width="140" height="65" fill="#FFFFFF" color="#111111" font-size="14" class=".select-none">
                        <div
                            xmlns="http://www.w3.org/1999/xhtml" style="width: 140px; height: 65px; display: flex; align-items: center; justify-content: center; font-family: &quot;Nunito Sans&quot;, sans-serif; overflow-wrap: break-word;">
                            <div style="border-radius:8px;width: 80px; height:20px;font-size: 14px; background-color:#DDD"></div>
                        </div>
                    </foreignObject>
                    <foreignObject x="240" y="20" width="140" height="65">
                        <div
                            xmlns="http://www.w3.org/1999/xhtml" style="background-color: transparent; width: 140px; height: 65px;">
                        </div>
                    </foreignObject>
                </g>
                <path stroke-width="2" stroke="#3E9BCD" d="M140,32.5 L182,32.5 A8,8,0,0,1,190,40.5 L190,119.5 A8,8,0,0,0,198,127.5 L240,127.5" fill="transparent"/>
                <g/>
                <g>
                    <foreignObject x="240" y="95" width="140" height="65" fill="#FFFFFF" color="#111111" font-size="14" class=".select-none">
                        <div
                            xmlns="http://www.w3.org/1999/xhtml" style="width: 140px; height: 65px; font-family: &quot;Nunito Sans&quot;, sans-serif; overflow-wrap: break-word; display: flex; align-items: center; justify-content: center;">
                            <div style="border-radius:8px;width: 80px; height:20px;font-size: 14px; background-color:#DDD"></div>
                        </div>
                    </foreignObject>
                    <foreignObject x="240" y="95" width="140" height="65">
                        <div
                            xmlns="http://www.w3.org/1999/xhtml" style="background-color: transparent; width: 140px; height: 65px;">
                        </div>
                    </foreignObject>
                </g>
                <path stroke-width="2" stroke="#3E9BCD" d="M140,32.5 L182,32.5 A8,8,0,0,1,190,40.5 L190,194.5 A8,8,0,0,0,198,202.5 L240,202.5" fill="transparent"/>
                <g/>
                <g>
                    <foreignObject x="240" y="170" width="140" height="65" fill="#FFFFFF" color="#111111" font-size="14" class=".select-none">
                        <div
                            xmlns="http://www.w3.org/1999/xhtml" style="width: 140px; height: 65px; font-family: &quot;Nunito Sans&quot;, sans-serif; overflow-wrap: break-word; display: flex; align-items: center; justify-content: center;">
                            <div style="border-radius:8px;width: 80px; height:20px;font-size: 14px; background-color:#DDD"></div>
                        </div>
                    </foreignObject>
                    <foreignObject x="240" y="170" width="140" height="65">
                        <div
                            xmlns="http://www.w3.org/1999/xhtml" style="background-color: transparent; width: 140px; height: 65px;">
                        </div>
                    </foreignObject>
                </g>
            </g>
            <g>
                <rect width="140" height="64" x="0" y="0" stroke-width="2" stroke="#266B9A" rx="32" ry="32" fill="#f5f5f6"/>
                <foreignObject x="0" y="0" width="140" height="65" fill="#FFFFFF" color="#111111" font-size="14" class=".select-none">
                    <div
                        xmlns="http://www.w3.org/1999/xhtml" style="width: 140px; height: 65px; font-family: &quot;Nunito Sans&quot;, sans-serif; overflow-wrap: break-word; display: flex; align-items: center; justify-content: center;">
                    </div>
                </foreignObject>
                <foreignObject x="0" y="0" width="140" height="65">
                    <div
                        xmlns="http://www.w3.org/1999/xhtml" style="background-color: transparent; width: 140px; height: 65px;">
                    </div>
                </foreignObject>
            </g>
        </g>
    </g>
</svg>

<?xml version="1.0" encoding="UTF-8"?>
<svg viewBox="0 0 756 890" xmlns="http://www.w3.org/2000/svg">
<defs>
<style>@import url('https://fonts.googleapis.com/css?family=Nunito Sans&amp;display=swap');</style>
</defs>
<g transform="translate(0 300) scale(2)" fill="transparent" style="transition:transform 0.15s ease;will-change:transform">
<path d="m140 32.5h42a8 8 0 0 0 8-8v-114a8 8 0 0 1 8-8h42" fill="transparent" stroke="#3E9BCD" stroke-width="2"/>
<foreignObject class=".select-none" x="240" y="-130" width="140" height="65" color="#111111" fill="#FFFFFF" font-size="14">
<div display="flex" font-family='"Nunito Sans", sans-serif' style="align-items:center;height:65px;justify-content:center;overflow-wrap:break-word;width:140px" xmlns="http://www.w3.org/1999/xhtml">
<div font-size="14px" style="background-color:#DDD;border-radius:8px;height:20px;width:80px"/>
</div>
</foreignObject>
<foreignObject x="240" y="-130" width="140" height="65">
<div style="background-color:transparent;height:65px;width:140px" xmlns="http://www.w3.org/1999/xhtml"></div>
</foreignObject>
<path d="m140 32.5h42a8 8 0 0 0 8-8v-39a8 8 0 0 1 8-8h42" fill="transparent" stroke="#3E9BCD" stroke-width="2"/>
<foreignObject class=".select-none" x="240" y="-55" width="140" height="65" color="#111111" fill="#FFFFFF" font-size="14">
<div display="flex" font-family='"Nunito Sans", sans-serif' style="align-items:center;height:65px;justify-content:center;overflow-wrap:break-word;width:140px" xmlns="http://www.w3.org/1999/xhtml">
<div font-size="14px" style="background-color:#DDD;border-radius:8px;height:20px;width:80px"/>
</div>
</foreignObject>
<foreignObject x="240" y="-55" width="140" height="65">
<div style="background-color:transparent;height:65px;width:140px" xmlns="http://www.w3.org/1999/xhtml"></div>
</foreignObject>
<path d="m140 32.5h42a8 8 0 0 1 8 8v4a8 8 0 0 0 8 8h42" fill="transparent" stroke="#3E9BCD" stroke-width="2"/>
<foreignObject class=".select-none" x="240" y="20" width="140" height="65" color="#111111" fill="#FFFFFF" font-size="14">
<div display="flex" font-family='"Nunito Sans", sans-serif' style="align-items:center;height:65px;justify-content:center;overflow-wrap:break-word;width:140px" xmlns="http://www.w3.org/1999/xhtml">
<div font-size="14px" style="background-color:#DDD;border-radius:8px;height:20px;width:80px"/>
</div>
</foreignObject>
<foreignObject x="240" y="20" width="140" height="65">
<div style="background-color:transparent;height:65px;width:140px" xmlns="http://www.w3.org/1999/xhtml"></div>
</foreignObject>
<path d="m140 32.5h42a8 8 0 0 1 8 8v79a8 8 0 0 0 8 8h42" fill="transparent" stroke="#3E9BCD" stroke-width="2"/>
<foreignObject class=".select-none" x="240" y="95" width="140" height="65" color="#111111" fill="#FFFFFF" font-size="14">
<div display="flex" font-family='"Nunito Sans", sans-serif' style="align-items:center;height:65px;justify-content:center;overflow-wrap:break-word;width:140px" xmlns="http://www.w3.org/1999/xhtml">
<div font-size="14px" style="background-color:#DDD;border-radius:8px;height:20px;width:80px"/>
</div>
</foreignObject>
<foreignObject x="240" y="95" width="140" height="65">
<div style="background-color:transparent;height:65px;width:140px" xmlns="http://www.w3.org/1999/xhtml"></div>
</foreignObject>
<path d="m140 32.5h42a8 8 0 0 1 8 8v154a8 8 0 0 0 8 8h42" fill="transparent" stroke="#3E9BCD" stroke-width="2"/>
<foreignObject class=".select-none" x="240" y="170" width="140" height="65" color="#111111" fill="#FFFFFF" font-size="14">
<div display="flex" font-family='"Nunito Sans", sans-serif' style="align-items:center;height:65px;justify-content:center;overflow-wrap:break-word;width:140px" xmlns="http://www.w3.org/1999/xhtml">
<div font-size="14px" style="background-color:#DDD;border-radius:8px;height:20px;width:80px"/>
</div>
</foreignObject>
<foreignObject x="240" y="170" width="140" height="65">
<div style="background-color:transparent;height:65px;width:140px" xmlns="http://www.w3.org/1999/xhtml"></div>
</foreignObject>
<rect width="140" height="64" rx="32" ry="32" fill="#f5f5f6" stroke="#266B9A" stroke-width="2"/>
<foreignObject class=".select-none" width="140" height="65" color="#111111" fill="#FFFFFF" font-size="14">
<div display="flex" font-family='"Nunito Sans", sans-serif' style="align-items:center;height:65px;justify-content:center;overflow-wrap:break-word;width:140px" xmlns="http://www.w3.org/1999/xhtml"></div>
</foreignObject>
<foreignObject width="140" height="65">
<div style="background-color:transparent;height:65px;width:140px" xmlns="http://www.w3.org/1999/xhtml"></div>
</foreignObject>
</g>
</svg>
